src/activities/piano_composition/resource/blacksharp.svg

<?xml version="1.0" encoding="UTF-8" standalone="no"?>
<svg
   xmlns:dc="http://purl.org/dc/elements/1.1/"
   xmlns:cc="http://creativecommons.org/ns#"
   xmlns:rdf="http://www.w3.org/1999/02/22-rdf-syntax-ns#"
   xmlns:svg="http://www.w3.org/2000/svg"
   xmlns="http://www.w3.org/2000/svg"
   xmlns:sodipodi="http://sodipodi.sourceforge.net/DTD/sodipodi-0.dtd"
   xmlns:inkscape="http://www.inkscape.org/namespaces/inkscape"
   id="svg1"
   sodipodi:docname="blacksharp.svg"
   viewBox="0 0 60 60"
   sodipodi:version="0.32"
   _SVGFile__filename="oldscale/actions/music_cross.svg"
   version="1.0"
   y="0"
   x="0"
   inkscape:version="0.92.1 r15371">
  <defs
     id="defs11" />
  <sodipodi:namedview
     id="base"
     bordercolor="#666666"
     inkscape:pageshadow="2"
     inkscape:window-y="0"
     pagecolor="#aeaeae"
     inkscape:window-height="1051"
     inkscape:zoom="8.6748326"
     inkscape:window-x="0"
     borderopacity="1.0"
     inkscape:current-layer="svg1"
     inkscape:cx="9.1771171"
     inkscape:cy="21.795312"
     inkscape:window-width="1884"
     inkscape:pageopacity="0"
     showgrid="false"
     inkscape:window-maximized="1" />
  <g
     id="g1088"
     transform="matrix(1.051 0 0 1.051 -.96118 -1.6077)">
    <path
       style="color:#000000;font-style:normal;font-variant:normal;font-weight:normal;font-stretch:normal;font-size:medium;line-height:normal;font-family:sans-serif;font-variant-ligatures:normal;font-variant-position:normal;font-variant-caps:normal;font-variant-numeric:normal;font-variant-alternates:normal;font-feature-settings:normal;text-indent:0;text-align:start;text-decoration:none;text-decoration-line:none;text-decoration-style:solid;text-decoration-color:#000000;letter-spacing:normal;word-spacing:normal;text-transform:none;writing-mode:lr-tb;direction:ltr;text-orientation:mixed;dominant-baseline:auto;baseline-shift:baseline;text-anchor:start;white-space:normal;shape-padding:0;clip-rule:nonzero;display:inline;overflow:visible;visibility:visible;opacity:1;isolation:auto;mix-blend-mode:normal;color-interpolation:sRGB;color-interpolation-filters:linearRGB;solid-color:#000000;solid-opacity:1;vector-effect:none;fill:#000000;fill-opacity:1;fill-rule:nonzero;stroke:none;stroke-width:3.74983358;stroke-linecap:round;stroke-linejoin:round;stroke-miterlimit:4;stroke-dasharray:none;stroke-dashoffset:0;stroke-opacity:1;color-rendering:auto;image-rendering:auto;shape-rendering:auto;text-rendering:auto;enable-background:accumulate"
       d="M 20.558594 3.0996094 A 1.8751042 1.8751042 0 0 0 18.712891 5 L 18.712891 22.052734 L 12.535156 23.708984 A 2.5001584 2.5001584 0 1 0 13.828125 28.537109 L 18.712891 27.228516 L 18.712891 38.822266 L 12.537109 40.470703 A 2.5005687 2.5005687 0 0 0 13.826172 45.302734 L 18.712891 43.998047 L 18.712891 54.996094 A 1.8757218 1.8757218 0 1 0 22.462891 54.996094 L 22.462891 42.998047 L 37.535156 38.974609 L 37.535156 54.996094 A 1.8751042 1.8751042 0 1 0 41.283203 54.996094 L 41.283203 37.972656 L 47.460938 36.324219 A 2.5001584 2.5001584 0 0 0 46.835938 31.400391 A 2.5001584 2.5001584 0 0 0 46.171875 31.492188 L 41.283203 32.796875 L 41.283203 21.181641 L 47.462891 19.525391 A 2.5001584 2.5001584 0 0 0 46.833984 14.601562 A 2.5001584 2.5001584 0 0 0 46.169922 14.695312 L 41.283203 16.005859 L 41.283203 5 A 1.8751042 1.8751042 0 0 0 39.380859 3.0996094 A 1.8751042 1.8751042 0 0 0 37.535156 5 L 37.535156 17.009766 L 22.462891 21.048828 L 22.462891 5 A 1.8751042 1.8751042 0 0 0 20.558594 3.0996094 z M 37.535156 22.185547 L 37.535156 33.796875 L 22.462891 37.820312 L 22.462891 26.222656 L 37.535156 22.185547 z "
       transform="matrix(0.95147479,0,0,0.95147479,0.91453853,1.529686)"
       id="path836" />
  </g>
  <metadata
     id="metadata8">
    <rdf:RDF>
      <cc:Work>
        <dc:format>image/svg+xml</dc:format>
        <dc:type
           rdf:resource="http://purl.org/dc/dcmitype/StillImage" />
        <cc:license
           rdf:resource="http://creativecommons.org/publicdomain/zero/1.0/" />
        <dc:publisher>
          <cc:Agent
             rdf:about="http://openclipart.org/">
            <dc:title>Openclipart</dc:title>
          </cc:Agent>
        </dc:publisher>
        <dc:title></dc:title>
        <dc:contributor>
          <cc:Agent>
            <dc:title>Edited by Timothée Giet for GCompris</dc:title>
          </cc:Agent>
        </dc:contributor>
      </cc:Work>
      <cc:License
         rdf:about="http://creativecommons.org/publicdomain/zero/1.0/">
        <cc:permits
           rdf:resource="http://creativecommons.org/ns#Reproduction" />
        <cc:permits
           rdf:resource="http://creativecommons.org/ns#Distribution" />
        <cc:permits
           rdf:resource="http://creativecommons.org/ns#DerivativeWorks" />
      </cc:License>
    </rdf:RDF>
  </metadata>
</svg>

<svg xmlns:dc="http://purl.org/dc/elements/1.1/" xmlns:cc="http://creativecommons.org/ns#" xmlns:rdf="http://www.w3.org/1999/02/22-rdf-syntax-ns#" xmlns="http://www.w3.org/2000/svg" xmlns:sodipodi="http://sodipodi.sourceforge.net/DTD/sodipodi-0.dtd" xmlns:inkscape="http://www.inkscape.org/namespaces/inkscape" sodipodi:docname="blacksharp.svg" viewBox="0 0 60 60" sodipodi:version="0.32" version="1.0" inkscape:version="0.92.1 r15371"><sodipodi:namedview bordercolor="#666666" inkscape:pageshadow="2" inkscape:window-y="0" pagecolor="#aeaeae" inkscape:window-height="1051" inkscape:zoom="8.6748326" inkscape:window-x="0" borderopacity="1.0" inkscape:current-layer="svg1" inkscape:cx="9.1771171" inkscape:cy="21.795312" inkscape:window-width="1884" inkscape:pageopacity="0" showgrid="false" inkscape:window-maximized="1"/><path style="color:#000;font-style:normal;font-variant:normal;font-weight:400;font-stretch:normal;font-size:medium;line-height:normal;font-family:sans-serif;font-variant-ligatures:normal;font-variant-position:normal;font-variant-caps:normal;font-variant-numeric:normal;font-variant-alternates:normal;font-feature-settings:normal;text-indent:0;text-align:start;text-decoration:none;text-decoration-line:none;text-decoration-style:solid;text-decoration-color:#000;letter-spacing:normal;word-spacing:normal;text-transform:none;writing-mode:lr-tb;direction:ltr;text-orientation:mixed;dominant-baseline:auto;baseline-shift:baseline;text-anchor:start;white-space:normal;shape-padding:0;clip-rule:nonzero;display:inline;overflow:visible;visibility:visible;opacity:1;isolation:auto;mix-blend-mode:normal;color-interpolation:sRGB;color-interpolation-filters:linearRGB;solid-color:#000;solid-opacity:1;vector-effect:none;fill:#000;fill-opacity:1;fill-rule:nonzero;stroke:none;stroke-width:3.74983358;stroke-linecap:round;stroke-linejoin:round;stroke-miterlimit:4;stroke-dasharray:none;stroke-dashoffset:0;stroke-opacity:1;color-rendering:auto;image-rendering:auto;shape-rendering:auto;text-rendering:auto;enable-background:accumulate" d="M20.559 3.1A1.875 1.875 0 0 0 18.713 5v17.053l-6.178 1.656a2.5 2.5 0 1 0 1.293 4.828l4.885-1.308v11.593l-6.176 1.649a2.5 2.5 0 0 0 1.29 4.832l4.886-1.305v10.998a1.876 1.876 0 1 0 3.75 0V42.998l15.072-4.023v16.021a1.875 1.875 0 1 0 3.748 0V37.973l6.178-1.649a2.5 2.5 0 0 0-.625-4.924 2.5 2.5 0 0 0-.664.092l-4.889 1.305V21.182l6.18-1.657a2.5 2.5 0 0 0-.629-4.923 2.5 2.5 0 0 0-.664.093l-4.887 1.31V5a1.875 1.875 0 0 0-1.902-1.9A1.875 1.875 0 0 0 37.535 5v12.01l-15.072 4.039V5a1.875 1.875 0 0 0-1.904-1.9zm16.976 19.086v11.61L22.463 37.82V26.223l15.072-4.037z"/><metadata><rdf:RDF><cc:Work><dc:format>image/svg+xml</dc:format><dc:type rdf:resource="http://purl.org/dc/dcmitype/StillImage"/><cc:license rdf:resource="http://creativecommons.org/publicdomain/zero/1.0/"/><dc:publisher><cc:Agent rdf:about="http://openclipart.org/"><dc:title>Openclipart</dc:title></cc:Agent></dc:publisher><dc:title/><dc:contributor><cc:Agent><dc:title>Edited by Timothée Giet for GCompris</dc:title></cc:Agent></dc:contributor></cc:Work><cc:License rdf:about="http://creativecommons.org/publicdomain/zero/1.0/"><cc:permits rdf:resource="http://creativecommons.org/ns#Reproduction"/><cc:permits rdf:resource="http://creativecommons.org/ns#Distribution"/><cc:permits rdf:resource="http://creativecommons.org/ns#DerivativeWorks"/></cc:License></rdf:RDF></metadata></svg>
